website/static/img/icons/materialize.svg

<svg fill="none" height="56" viewBox="0 0 67 56" width="67" xmlns="http://www.w3.org/2000/svg" xmlns:xlink="http://www.w3.org/1999/xlink"><clipPath id="a"><path d="m0 0h67v56h-67z"/></clipPath><g clip-path="url(#a)" fill="#472f85"><path d="m67.2686-.391989v8.203099l-.0122 48.56559h-13.1764v-51.99229l4.1296-4.205103c.1744-.1884996.3874-.337099.6245-.435699s.4926-.144897.7491-.135597z" opacity=".7"/><path clip-rule="evenodd" d="m47.1165 37.9003c-.9296-1.192-1.8569-2.3809-2.7669-3.291-1.6835-1.6775-3.355-3.3669-5.0253-5.055-.8335-.8425-1.6668-1.6846-2.501-2.5248v-5.8429l.0028-.0121c-.0075-.2566.0405-.5117.1406-.748.0667-.1572.1554-.3036.2631-.4349l12.7734-12.2369v.6533 31.2753c-.0008.0441.0008.1963.0029.3916.0047.4532.0119 1.1382-.0029 1.2394-.9538-.9357-1.9216-2.1765-2.8867-3.414z" fill-rule="evenodd" opacity=".7"/><path d="m-.344299 14.7681v18.4323l23.256599 23.1763h18.4947z"/><path d="m-.344299 56.3767h17.094699l-17.094699-17.0322z"/><path d="m47.642 56.3767h18.3132l-55.2324-56.196906c-.1744-.1883001-.3873-.336799-.6243-.435299s-.4925-.144699-.749-.135399h-9.675397v8.194604z"/></g></svg>

<svg width="67" height="56" style="" viewBox="0 0 67 56" fill="none" xmlns="http://www.w3.org/2000/svg">
	<g clip-path="url(#Frame_clip0-16-34)">
		<path opacity="0.7"
			d="M67.2686 -0.391989V7.81111L67.2564 56.3767H54.08V4.38441L58.2096 0.179307C58.384 -0.0091926 58.597 -0.157792 58.8341 -0.256392C59.0712 -0.354992 59.3267 -0.401289 59.5832 -0.391989H67.2686Z"
			fill="#472F85" />
		<path opacity="0.7" fill-rule="evenodd" clip-rule="evenodd"
			d="M47.1165 37.9003C46.1869 36.7083 45.2596 35.5194 44.3496 34.6093C42.6661 32.9318 40.9946 31.2424 39.3243 29.5543C38.4908 28.7118 37.6575 27.8697 36.8233 27.0295V21.1866L36.8261 21.1745C36.8186 20.9179 36.8666 20.6628 36.9667 20.4265C37.0334 20.2693 37.1221 20.1229 37.2298 19.9916L50.0032 7.7547V8.408V39.6833C50.0024 39.7274 50.004 39.8796 50.0061 40.0749C50.0108 40.5281 50.018 41.2131 50.0032 41.3143C49.0494 40.3786 48.0816 39.1378 47.1165 37.9003Z"
			fill="#472F85" />
		<path d="M-0.344299 14.7681V33.2004L22.9123 56.3767H41.407L-0.344299 14.7681Z" fill="#472F85" />
		<path d="M-0.344299 56.3767H16.7504L-0.344299 39.3445V56.3767Z" fill="#472F85" />
		<path
			d="M47.642 56.3767H65.9552L10.7228 0.179794C10.5484 -0.0085061 10.3355 -0.157005 10.0985 -0.255505C9.8615 -0.354005 9.606 -0.400204 9.3495 -0.390904H-0.325897V7.8037L47.642 56.3767Z"
			fill="#472F85" />
	</g>
	<defs>
		<clipPath id="Frame_clip0-16-34">
			<rect width="67" height="56" fill="white" />
		</clipPath>
	</defs>
</svg>
